X:1
T:12 Gesänge, Op.1
T:Die Lotosblume
T:12 Gesänge, Op.1
T:3. Die Lotosblume The Lotos flower 
T:Robert Franz
T:Emanuel Geibel
T:Creative Commons copyright waiver (CC0 1.0 Universal)
T:Creative Commons copyright waiver (CC0 1.0 Universal)
C:Robert Franz
Z:Emanuel Geibel
Z:Creative Commons copyright waiver (CC0 1.0 Universal)
L:1/8
Q:1/4=92
M:2/4
K:Bb
V:1 treble nm="Singstimme\nVoice"
V:1
"^Andante""^Leise" z4 | z2 z F | B3/2 B/ F F | (_G>_A) B z | _A B/ _c/ B3/2 A/ | f2 z B | %6
w: |Die|stil- le Lo- tos-|blu- * me|steigt aus dem blau- en|See, die|
w: |The|si- lent Lo- tos|flow- * er|floats o'er the lake at|night her|
 e3/2 e/ _d _A/ B/ | _c2 B z/ B/ | (_AB/) _c/ (B/_d) c/ | B2 z2 | z2 z B | B3/2 B/ F F | %12
w: Blät- ter flim- mern und|bli- tzen, der|Kelch _ ist weiss _ wie|Schnee.|Da|giesst der Mond vom|
w: leaf- lets glis- ter and|glim- mer, her|breast _ is snow- * y|white.|Then|pours the moon from|
 (_G>_A) B z | _A A/ A/ B _c | _d2 z2 | e B/ _c/ (_d_A/) B/ | _c2 B z/ B/ | (_AB/) _c/ (B/_d) c/ | %18
w: Him- * mel|all' sei- nen gold- nen|Schein,|giesst al- le sei- * ne|Strah- len in|ih- * ren Schooss _ hin-|
w: hea- * ven|his ri- chest gol- den|beams,|he all his cost- * ly|trea- sure, in-|to _ her bo- * som|
 B2 z2 | z2 z B | B3/2 B/ F F | G2 G z | A A/ A/ d f | =e2 z A | d3/2 d/ c3/2 c/ | f2 =e (g | %26
w: \- ein.|Im|Was- ser um die|Blu- me|krei- set ein wei- sser|Schwan, er|singt so süss, so|lei- se, und|
w: teems.|There|swims a- round the|flow- er|state- ly, a milk- white|swan, he|sings so sweet, so|soft- ly, and|
 ^c3/2) c/ f3/2 d/ | A2- A z | z2 z F | d3/2 B/ F3/2 B/ | A2 G G | A3/2 A/ d d/ d/ | =f2 z B | %33
w: schaut die Blu- me|an. _|Er|singt so süss, so|lei- se, und|will im Sin- gen ver-|gehn o|
w: looks the flow- er|on. _|He|songs so sweet, so|soft- ly, would|thus his life breathe a-|way oh|
 e3/2 e/ _d3/2 d/ | _c2 B z | _A B/ _c/ B3/2 A/ | f4- | f2 z2 | z4 | z4 |] %40
w: Blu- me, wei- sse|Blu- me,|kannst du das Lied ver-|stehn?|_|||
w: flow- er, snow- white|flow- er,|canst un- der- stand that|lay?|_|||

